X:1
T:The Green Willow Tree
M:4/4
L:1/8
K:D
 D/2 D3/2 D/2 D3/2 E/2 F3/2 D2| E2 F3/2 E/2 D2 z2| E/2 E3/2 F3 F G2|\
 FF E3 D3| E6 z2| D/2 D3/2 D/2 D3/2 E/2 F3/2 D2| E2 D3/2 D/2 D2 z2|\
 E/2 E3/2 F3/2 F/2 G3/2 F/2F/2 E3/2| DD E3- E2 z| D/2 D3/2 D/2 D3/2 E/2- F3/2 D2|\
 E2 D3/2- D/2 D2 z2| E/2- E3/2 F3/2- F/2 G3/2 F E3/2| D2 E3- E2 z|\
